!!!OTL: 184. Sher
!!!Genre:	Sher
!!!Mode:	Altered Dorian
!!!Listening/dance:	dance
!!!One_Mode:	no
**kern
*thru
*I"P1
*clefG2
*k[b-]
*g:
=10!|:
*k[b-e-]
8g
=11
(8ee-L
8cc)
8cc
8ccJ
=12
8ddL
8b-
8b-
8ddJ
=13
(16ddLL
16cc#XJ
8b-J)
(16b-LL
16aJ
8gJ)
=14
*^
8ddL	4dd
8gg	.
8dd	4gg
8ggJ	.
*v	*v
=15
8ee-L
8cc
8cc
8ccJ
=16
8ddL
8b-
8b-
8ddJ
=17
16ddLL
16cc#XJ
8b-J
16b-LL
16aJ
8gJ
*>B1
=18
4.g
*>B
8g
=11
(8ee-L
8cc)
8cc
8ccJ
=12
8ddL
8b-
8b-
8ddJ
=13
(16ddLL
16cc#XJ
8b-J)
(16b-LL
16aJ
8gJ)
=14
*^
8ddL	4dd
8gg	.
8dd	4gg
8ggJ	.
*v	*v
=15
8ee-L
8cc
8cc
8ccJ
=16
8ddL
8b-
8b-
8ddJ
=17
16ddLL
16cc#XJ
8b-J
16b-LL
16aJ
8gJ
*>B2
=19:|!
4g
!LO:TX:b:Bi:t=D.C.
8d
!!!End-Modulation
==
*-
